X:3
T:Rights of Man, The
R:hornpipe
C:James Hill (1811-1853), Northumberland (?)
D:De Dannan: Ballroom
Z:id:hn-hornpipe-3
M:C|
K:Em
GA|BcAB GAFG|EFGA B2ef|gfed edBd|cBAG A2GA|
BcAB GAFG|EFGA B2ef|gfed Bgfg|e2E2 E2:|
|:ga|babg efga|babg egfe|d^cde fefg|afdf a2gf|
edef gfga|(3bag af gfef|gfed Bgfg|e2E2 E2:|
P:Variations:
|:GA|(3Bcd AB GAGF|EFGA B2ef|gfed Bdef|gedB A2GA|
(3BcB (3ABA (3GAG (3FGF|EFGA B2ef|gfed Bgfg|e2E2 E2:|
|:ga|bagf efge|bege bege|d2d^c defg|afbf afdf|
edef gfga|bgaf gfef|gfed Bgfg|e2E2 E2:|

